X:1
T:Title
%%score 1 2
L:1/8
Q:1/4=86
M:2/4
K:C
V:1 treble nm="Grand Piano, Soprano"
V:2 bass nm="Choir Pad, Bits of Sunshine"
V:1
 [EG][EG] [Ec][CE] | [EA][EG] [EG]2 | [EG][EG] [EA][GB] | [Gc] [FB]3 | [FB][FB] [Fd][FA] | %5
w: By~Thomas~O�Neill * * *|||||
 [Fc][FB] [FB]2 | [FA][FG] [FA][B,F] | [B,G] [CE]3 | [EG][EG] [Ec][CE] | [EA][EG] [EG]2 | %10
w: |||||
 [EG][EG] [EA][GB] | [Gc] [FB]3 | [FB][FB] [Fd][FA] | [FB][Ec] [EG]2 | [EG][FA]- [FA]/[Fc]/[Ec] | %15
w: |||||
 [DB] [Ec]3 | z [CE] [EG]2- | [EG][FA] [Fc]2 | [Fc][Ec] [EG][FA]- | [FA]/[FG]/[EG] [CE]2- | %20
w: |||||
 [CE][CE] [EG]2- | [EG][FA] [Fc]2 | [Fc][FB]- [FB]/[FA]/[FG] | [Fd] [Ec]3- | [Ec][CE] [EG]2- | %25
w: |||||
 [EG][FA] [Fc]2 | [Fc][Ec] [EG][FA]- | [FA]/[FG]/[EG] [CE]2- | [CE][CE] [EG]2- | [EG][FA] [Fc]2 | %30
w: |||||
 [Fc][FB]- [FB]/[FA]/[FG] | [Fd] [Ec]3- | [Ec]2 z2 |] %33
w: |||
V:2
 [C,C][C,C] [C,G,][C,G,] | [C,C][C,C] [C,C]2 | [C,C][C,C] [C,G,][E,G,] | [E,G,] [D,G,]3 | %4
 [D,G,]G, [G,B,][G,C] | [G,A,][G,D] [G,D]2 | [G,C][G,B,] [G,B,][G,,G,] | [G,,G,] [C,G,]3 | %8
 [C,C][C,C] [C,G,][C,G,] | [C,C][C,C] [C,C]2 | [C,C][C,C] [C,G,][E,G,] | [E,G,] [D,G,]3 | %12
 [D,G,]G, [G,B,][G,C] | [G,D][C,C] [C,C]2 | [C,C][F,C]- [F,C]/[F,A,]/G, | G, [C,G,]3 | %16
 z [C,G,] [C,C]2- | [C,C][F,C] [F,A,]2 | [F,A,]G, G,[G,B,]- | [G,B,]/[G,B,]/[C,C] [C,G,]2- | %20
 [C,G,][C,G,] [C,C]2- | [C,C][F,C] [F,A,]2 | [F,A,]G,- G,/[G,C]/[G,B,] | [G,B,] [C,G,C]3- | %24
 [C,G,C][C,G,] [C,C]2- | [C,C][F,C] [F,A,]2 | [F,A,]G, G,[G,B,]- | [G,B,]/[G,B,]/[C,C] [C,G,]2- | %28
 [C,G,][C,G,] [C,C]2- | [C,C][F,C] [F,A,]2 | [F,A,]G,- G,/[G,C]/[G,B,] | [G,B,] [C,G,C]3- | %32
 [C,G,C]2 z2 |] %33

